X:225
T:Earl of Dalkeith
R:Reel
B:The Athole Collection
M:C|
L:1/8
K:F
A|FCA,C F/F/F AF|G/G/G BA GDDG|FCA,C F/F/F Ac|dfcf AFF:|
c|fgag fefc|d/d/d ba gdde|fgag fcdB|AcGB AFFc|fgag fefc|d/d/d ba gdde|
fcae fcdB|AcGB AF~F||

